src/assets/icons/letters,fancy,serif-r.svg

<svg width="48" height="48" viewBox="0 0 48 48" fill="none" xmlns="http://www.w3.org/2000/svg">
<path d="M34.9168 15.074C34.9168 17.1767 34.3088 18.9373 33.0928 20.356C31.8768 21.7747 29.9388 22.7247 27.2788 23.206L36.0948 33.314C36.7028 34.0233 37.4248 34.568 38.2608 34.948C39.0968 35.3027 39.9455 35.48 40.8068 35.48V37H31.8008L22.3768 25.448C21.7435 24.688 21.1862 24.1813 20.7048 23.928C20.2488 23.6493 19.8182 23.51 19.4128 23.51V30.958C19.4128 31.8953 19.4762 32.668 19.6028 33.276C19.7295 33.8587 19.9828 34.3147 20.3628 34.644C20.7428 34.9733 21.2875 35.2013 21.9968 35.328C22.7315 35.4293 23.7068 35.48 24.9228 35.48V37H9.83684V35.48C10.6728 35.48 11.3442 35.4293 11.8508 35.328C12.3828 35.2013 12.7882 34.986 13.0668 34.682C13.3708 34.3527 13.5735 33.9093 13.6748 33.352C13.7762 32.7693 13.8268 32.0347 13.8268 31.148V13.592C13.8268 12.7053 13.7888 11.996 13.7128 11.464C13.6368 10.9067 13.4722 10.476 13.2188 10.172C12.9655 9.84267 12.5982 9.62733 12.1168 9.526C11.6608 9.39933 11.0402 9.31067 10.2548 9.26V7.74H23.4028C27.0762 7.74 29.9135 8.386 31.9148 9.678C33.9162 10.97 34.9168 12.7687 34.9168 15.074ZM19.4128 21.23H21.8828C24.2642 21.23 26.0375 20.774 27.2028 19.862C28.3935 18.9247 28.9888 17.392 28.9888 15.264C28.9888 13.6427 28.4948 12.338 27.5068 11.35C26.5188 10.362 25.1508 9.868 23.4028 9.868H20.0968C19.6408 9.868 19.4128 10.0833 19.4128 10.514V21.23Z" fill="black"/>
</svg>

<svg xmlns="http://www.w3.org/2000/svg" width="48" height="48" fill="none" viewBox="0 0 48 48">
  <path fill="#000" d="M34.917 15.074c0 2.103-.608 3.863-1.824 5.282-1.216 1.419-3.154 2.369-5.814 2.85l8.816 10.108a6.207 6.207 0 002.166 1.634 6.464 6.464 0 002.546.532V37H31.8l-9.424-11.552c-.633-.76-1.19-1.267-1.672-1.52-.456-.279-.887-.418-1.292-.418v7.448c0 .937.063 1.71.19 2.318.127.583.38 1.039.76 1.368.38.33.925.557 1.634.684.735.101 1.71.152 2.926.152V37H9.837v-1.52c.836 0 1.507-.05 2.014-.152.532-.127.937-.342 1.216-.646.304-.33.506-.773.608-1.33.101-.583.152-1.317.152-2.204V13.592c0-.887-.038-1.596-.114-2.128-.076-.557-.24-.988-.494-1.292-.253-.33-.62-.545-1.102-.646-.456-.127-1.077-.215-1.862-.266V7.74h13.148c3.673 0 6.51.646 8.512 1.938 2.001 1.292 3.002 3.09 3.002 5.396zM19.413 21.23h2.47c2.381 0 4.155-.456 5.32-1.368 1.19-.937 1.786-2.47 1.786-4.598 0-1.621-.494-2.926-1.482-3.914s-2.356-1.482-4.104-1.482h-3.306c-.456 0-.684.215-.684.646V21.23z"/>
</svg>
